src/scalable/apps/org.gnome.dspy.svg

<svg width="128px" height="128px" version="1.1" viewBox="0 0 128 128" xmlns="http://www.w3.org/2000/svg">
 <defs>
  <filter id="filter2724" x="-.047442" y="-.048571" width="1.0949" height="1.0971" color-interpolation-filters="sRGB">
   <feGaussianBlur stdDeviation="2.2139554"/>
  </filter>
 </defs>
 <filter id="c" x="0" y="0" width="1" height="1">
  <feColorMatrix in="SourceGraphic" values="0 0 0 0 1 0 0 0 0 1 0 0 0 0 1 0 0 0 1 0"/>
 </filter>
 <mask id="d">
  <g filter="url(#c)">
   <rect width="128" height="128" fill-opacity=".17068"/>
  </g>
 </mask>
 <clipPath id="e">
  <rect width="192" height="152"/>
 </clipPath>
 <clipPath id="f">
  <path d="m24 70h80v12h-80z"/>
 </clipPath>
 <clipPath id="g">
  <path d="m24 70v2h18c0 3.5742 1.9062 6.875 5 8.6602s6.9062 1.7852 10 0c2.4922-1.4492 4.2383-3.9023 4.793-6.7305v0.097656c0.20703-2.6758 4.207-2.6562 4.4141 0v-0.11328c0.55078 2.8359 2.2969 5.2969 4.793 6.7461 3.0938 1.7852 6.9062 1.7852 10 0s5-5.0859 5-8.6602h18v-2z"/>
 </clipPath>
 <linearGradient id="h" x1="32" x2="89" y1="77" y2="77" gradientUnits="userSpaceOnUse">
  <stop stop-color="#3d3846" offset="0"/>
  <stop stop-color="#4f485a" offset=".38663"/>
  <stop stop-color="#201d24" offset="1"/>
 </linearGradient>
 <clipPath id="i">
  <path d="m38 70h20v12h-20z"/>
 </clipPath>
 <clipPath id="j">
  <path d="m24 70v2h18c0 3.5742 1.9062 6.875 5 8.6602s6.9062 1.7852 10 0c2.4922-1.4492 4.2383-3.9023 4.793-6.7305v0.097656c0.20703-2.6758 4.207-2.6562 4.4141 0v-0.11328c0.55078 2.8359 2.2969 5.2969 4.793 6.7461 3.0938 1.7852 6.9062 1.7852 10 0s5-5.0859 5-8.6602h18v-2z"/>
 </clipPath>
 <clipPath id="k">
  <path d="m47 70h18v12h-18z"/>
 </clipPath>
 <clipPath id="l">
  <path d="m24 70v2h18c0 3.5742 1.9062 6.875 5 8.6602s6.9062 1.7852 10 0c2.4922-1.4492 4.2383-3.9023 4.793-6.7305v0.097656c0.20703-2.6758 4.207-2.6562 4.4141 0v-0.11328c0.55078 2.8359 2.2969 5.2969 4.793 6.7461 3.0938 1.7852 6.9062 1.7852 10 0s5-5.0859 5-8.6602h18v-2z"/>
 </clipPath>
 <clipPath id="m">
  <path d="m70 70h18v12h-18z"/>
 </clipPath>
 <clipPath id="n">
  <path d="m24 70v2h18c0 3.5742 1.9062 6.875 5 8.6602s6.9062 1.7852 10 0c2.4922-1.4492 4.2383-3.9023 4.793-6.7305v0.097656c0.20703-2.6758 4.207-2.6562 4.4141 0v-0.11328c0.55078 2.8359 2.2969 5.2969 4.793 6.7461 3.0938 1.7852 6.9062 1.7852 10 0s5-5.0859 5-8.6602h18v-2z"/>
 </clipPath>
 <g transform="translate(0 1.2891)" fill="#000000" filter="url(#filter2724)" opacity=".15">
  <path d="m18.418 94c-1.3398 0-2.418 1.0781-2.418 2.418v14.434c0 5.0664 4.082 9.1484 9.1484 9.1484h77.703c5.0664 0 9.1484-4.082 9.1484-9.1484v-14.434c0-1.3398-1.0781-2.418-2.418-2.418z" fill-opacity=".96863"/>
  <path d="m18.418 88c-1.3398 0-2.418 1.0781-2.418 2.418v14.434c0 5.0664 4.082 9.1484 9.1484 9.1484h77.703c5.0664 0 9.1484-4.082 9.1484-9.1484v-14.434c0-1.3398-1.0781-2.418-2.418-2.418z"/>
  <path d="m18.418 90c-1.3398 0-2.418 1.0781-2.418 2.418v14.434c0 5.0664 4.082 9.1484 9.1484 9.1484h77.703c5.0664 0 9.1484-4.082 9.1484-9.1484v-14.434c0-1.3398-1.0781-2.418-2.418-2.418z"/>
  <path d="m26.25 56h75.5c1.2422 0 2.25 1.082 2.25 2.418v55.164c0 1.3359-1.0078 2.418-2.25 2.418h-75.5c-1.2422 0-2.25-1.082-2.25-2.418v-55.164c0-1.3359 1.0078-2.418 2.25-2.418z"/>
  <path d="m16 92 4.4805 3.3594c2.3164 1.7383 4.9883 2.9492 7.8242 3.5469l29.473 6.2031c2.5625 0.53906 4.5547 2.5547 5.0703 5.1211l1.1523 5.7695h-41.84c-3.4023 0-6.1602-2.7578-6.1602-6.1602z"/>
  <path d="m112 92-4.4805 3.3594c-2.3164 1.7383-4.9883 2.9492-7.8242 3.5469l-29.473 6.2031c-2.5625 0.53906-4.5547 2.5547-5.0703 5.1211l-1.1523 5.7695h41.84c3.4024 0 6.1602-2.7578 6.1602-6.1602z"/>
  <path d="m16 60 21.641-46.887c0.5625-1.2188 1.6602-2.1055 2.9727-2.4023 1.3086-0.29688 2.6836 0.03516 3.7148 0.89453l15.344 12.789c2.5078 2.0898 6.1484 2.0898 8.6562 0l15.344-12.789c1.0312-0.85938 2.4062-1.1914 3.7148-0.89453 1.3125 0.29687 2.4102 1.1836 2.9727 2.4023l21.641 46.887z"/>
  <path d="m12 56h104c2.2109 0 4 1.7891 4 4s-1.7891 4-4 4h-104c-2.2109 0-4-1.7891-4-4s1.7891-4 4-4z"/>
  <g clip-path="url(#f)">
   <g clip-path="url(#g)" fill="#000000">
    <path d="m24.418 68h78.164c1.3359 0 2.418 1.082 2.418 2.418v11.164c0 1.3359-1.082 2.418-2.418 2.418h-78.164c-1.3359 0-2.418-1.082-2.418-2.418v-11.164c0-1.3359 1.082-2.418 2.418-2.418z" fill="#000000"/>
   </g>
  </g>
  <g clip-path="url(#i)">
   <g clip-path="url(#j)" fill="#000000">
    <path d="m54.188 65 3.5391 3.5352-15.453 15.449-3.5352-3.5352z" fill="#000000"/>
   </g>
  </g>
  <g clip-path="url(#k)">
   <g clip-path="url(#l)" fill="#000000">
    <path d="m62.727 67.043 1.4922 1.4922-15.449 15.449-1.4961-1.4922z" fill="#000000"/>
   </g>
  </g>
  <g clip-path="url(#m)">
   <g clip-path="url(#n)" fill="#000000">
    <path d="m85.98 67.043 1.4922 1.4922-15.453 15.449-1.4922-1.4922z" fill="#000000"/>
   </g>
  </g>
 </g>
 <path d="m18.418 94c-1.3398 0-2.418 1.0781-2.418 2.418v14.434c0 5.0664 4.082 9.1484 9.1484 9.1484h77.703c5.0664 0 9.1484-4.082 9.1484-9.1484v-14.434c0-1.3398-1.0781-2.418-2.418-2.418z" fill="#8d6542" fill-opacity=".96863"/>
 <path d="m18.418 88c-1.3398 0-2.418 1.0781-2.418 2.418v14.434c0 5.0664 4.082 9.1484 9.1484 9.1484h77.703c5.0664 0 9.1484-4.082 9.1484-9.1484v-14.434c0-1.3398-1.0781-2.418-2.418-2.418z" fill="#b5835a"/>
 <path d="m18.418 90c-1.3398 0-2.418 1.0781-2.418 2.418v14.434c0 5.0664 4.082 9.1484 9.1484 9.1484h77.703c5.0664 0 9.1484-4.082 9.1484-9.1484v-14.434c0-1.3398-1.0781-2.418-2.418-2.418z" fill="#664930"/>
 <path d="m26.25 56h75.5c1.2422 0 2.25 1.082 2.25 2.418v55.164c0 1.3359-1.0078 2.418-2.25 2.418h-75.5c-1.2422 0-2.25-1.082-2.25-2.418v-55.164c0-1.3359 1.0078-2.418 2.25-2.418z" fill="#f7d786"/>
 <path d="m16 92 4.4805 3.3594c2.3164 1.7383 4.9883 2.9492 7.8242 3.5469l29.473 6.2031c2.5625 0.53906 4.5547 2.5547 5.0703 5.1211l1.1523 5.7695h-41.84c-3.4023 0-6.1602-2.7578-6.1602-6.1602z" fill="#b5835a"/>
 <path d="m112 92-4.4805 3.3594c-2.3164 1.7383-4.9883 2.9492-7.8242 3.5469l-29.473 6.2031c-2.5625 0.53906-4.5547 2.5547-5.0703 5.1211l-1.1523 5.7695h41.84c3.4023 0 6.1602-2.7578 6.1602-6.1602z" fill="#b5835a"/>
 <path d="m16 60 21.641-46.887c0.5625-1.2188 1.6602-2.1055 2.9727-2.4023 1.3086-0.29688 2.6836 0.035156 3.7148 0.89453l15.344 12.789c2.5078 2.0898 6.1484 2.0898 8.6562 0l15.344-12.789c1.0312-0.85938 2.4062-1.1914 3.7148-0.89453 1.3125 0.29687 2.4102 1.1836 2.9727 2.4023l21.641 46.887z" fill="#986a44"/>
 <path d="m12 56h104c2.2109 0 4 1.7891 4 4s-1.7891 4-4 4h-104c-2.2109 0-4-1.7891-4-4s1.7891-4 4-4z" fill="#b5835a"/>
 <g clip-path="url(#f)">
  <g clip-path="url(#g)">
   <path d="m24.418 68h78.164c1.3359 0 2.418 1.082 2.418 2.418v11.164c0 1.3359-1.082 2.418-2.418 2.418h-78.164c-1.3359 0-2.418-1.082-2.418-2.418v-11.164c0-1.3359 1.082-2.418 2.418-2.418z" fill="url(#h)"/>
  </g>
 </g>
 <g clip-path="url(#i)">
  <g clip-path="url(#j)">
   <path d="m54.188 65 3.5391 3.5352-15.453 15.449-3.5352-3.5352z" fill="#5e5c64"/>
  </g>
 </g>
 <g clip-path="url(#k)">
  <g clip-path="url(#l)">
   <path d="m62.727 67.043 1.4922 1.4922-15.449 15.449-1.4961-1.4922z" fill="#5e5c64"/>
  </g>
 </g>
 <g clip-path="url(#m)">
  <g clip-path="url(#n)">
   <path d="m85.98 67.043 1.4922 1.4922-15.453 15.449-1.4922-1.4922z" fill="#5e5c64"/>
  </g>
 </g>
</svg>

<svg xmlns="http://www.w3.org/2000/svg" width="128" height="128"><defs><filter id="b" width="1.095" height="1.097" x="-.047" y="-.049" color-interpolation-filters="sRGB"><feGaussianBlur stdDeviation="2.214"/></filter></defs><clipPath id="d"><path d="M24 70h80v12H24z"/></clipPath><clipPath id="e"><path d="M24 70v2h18c0 3.574 1.906 6.875 5 8.66s6.906 1.785 10 0a10.02 10.02 0 0 0 4.793-6.73v.097c.207-2.675 4.207-2.656 4.414 0v-.113A10 10 0 0 0 71 80.66c3.094 1.785 6.906 1.785 10 0s5-5.086 5-8.66h18v-2z"/></clipPath><linearGradient id="o" x1="32" x2="89" y1="77" y2="77" gradientUnits="userSpaceOnUse"><stop offset="0" stop-color="#3d3846"/><stop offset=".387" stop-color="#4f485a"/><stop offset="1" stop-color="#201d24"/></linearGradient><clipPath id="h"><path d="M38 70h20v12H38z"/></clipPath><clipPath id="j"><path d="M24 70v2h18c0 3.574 1.906 6.875 5 8.66s6.906 1.785 10 0a10.02 10.02 0 0 0 4.793-6.73v.097c.207-2.675 4.207-2.656 4.414 0v-.113A10 10 0 0 0 71 80.66c3.094 1.785 6.906 1.785 10 0s5-5.086 5-8.66h18v-2z"/></clipPath><clipPath id="k"><path d="M47 70h18v12H47z"/></clipPath><clipPath id="l"><path d="M24 70v2h18c0 3.574 1.906 6.875 5 8.66s6.906 1.785 10 0a10.02 10.02 0 0 0 4.793-6.73v.097c.207-2.675 4.207-2.656 4.414 0v-.113A10 10 0 0 0 71 80.66c3.094 1.785 6.906 1.785 10 0s5-5.086 5-8.66h18v-2z"/></clipPath><clipPath id="m"><path d="M70 70h18v12H70z"/></clipPath><clipPath id="n"><path d="M24 70v2h18c0 3.574 1.906 6.875 5 8.66s6.906 1.785 10 0a10.02 10.02 0 0 0 4.793-6.73v.097c.207-2.675 4.207-2.656 4.414 0v-.113A10 10 0 0 0 71 80.66c3.094 1.785 6.906 1.785 10 0s5-5.086 5-8.66h18v-2z"/></clipPath><g filter="url(#b)" opacity=".15" transform="translate(0 1.29)"><path fill-opacity=".969" d="M18.418 94A2.41 2.41 0 0 0 16 96.418v14.434A9.13 9.13 0 0 0 25.148 120h77.703a9.13 9.13 0 0 0 9.149-9.148V96.418A2.41 2.41 0 0 0 109.582 94z"/><path d="M18.418 88A2.41 2.41 0 0 0 16 90.418v14.434A9.13 9.13 0 0 0 25.148 114h77.703a9.13 9.13 0 0 0 9.149-9.148V90.418A2.41 2.41 0 0 0 109.582 88z"/><path d="M18.418 90A2.41 2.41 0 0 0 16 92.418v14.434A9.13 9.13 0 0 0 25.148 116h77.703a9.13 9.13 0 0 0 9.149-9.148V92.418A2.41 2.41 0 0 0 109.582 90z"/><path d="M26.25 56h75.5c1.242 0 2.25 1.082 2.25 2.418v55.164c0 1.336-1.008 2.418-2.25 2.418h-75.5c-1.242 0-2.25-1.082-2.25-2.418V58.418C24 57.082 25.008 56 26.25 56"/><path d="m16 92 4.48 3.36a19.9 19.9 0 0 0 7.825 3.546l29.473 6.203a6.55 6.55 0 0 1 5.07 5.121L64 116H22.16a6.16 6.16 0 0 1-6.16-6.16zM112 92l-4.48 3.36a19.9 19.9 0 0 1-7.825 3.546l-29.473 6.203a6.55 6.55 0 0 0-5.07 5.121L64 116h41.84a6.16 6.16 0 0 0 6.16-6.16zM16 60l21.641-46.887a4.32 4.32 0 0 1 6.688-1.508l15.343 12.79a6.76 6.76 0 0 0 8.657 0l15.344-12.79a4.32 4.32 0 0 1 6.688 1.508L112 60z"/><path d="M12 56h104c2.21 0 4 1.79 4 4s-1.79 4-4 4H12c-2.21 0-4-1.79-4-4s1.79-4 4-4"/><g clip-path="url(#d)"><g clip-path="url(#e)"><path d="M24.418 68h78.164A2.417 2.417 0 0 1 105 70.418v11.164A2.417 2.417 0 0 1 102.582 84H24.418A2.417 2.417 0 0 1 22 81.582V70.418A2.417 2.417 0 0 1 24.418 68"/></g></g><g clip-path="url(#h)"><g clip-path="url(#j)"><path d="m54.188 65 3.54 3.535-15.454 15.45-3.535-3.536z"/></g></g><g clip-path="url(#k)"><g clip-path="url(#l)"><path d="m62.727 67.043 1.492 1.492-15.449 15.45-1.496-1.493z"/></g></g><g clip-path="url(#m)"><g clip-path="url(#n)"><path d="m85.98 67.043 1.492 1.492-15.453 15.45-1.492-1.493z"/></g></g></g><path fill="#8d6542" fill-opacity=".969" d="M18.418 94A2.41 2.41 0 0 0 16 96.418v14.434A9.13 9.13 0 0 0 25.148 120h77.703a9.13 9.13 0 0 0 9.149-9.148V96.418A2.41 2.41 0 0 0 109.582 94z"/><path fill="#b5835a" d="M18.418 88A2.41 2.41 0 0 0 16 90.418v14.434A9.13 9.13 0 0 0 25.148 114h77.703a9.13 9.13 0 0 0 9.149-9.148V90.418A2.41 2.41 0 0 0 109.582 88z"/><path fill="#664930" d="M18.418 90A2.41 2.41 0 0 0 16 92.418v14.434A9.13 9.13 0 0 0 25.148 116h77.703a9.13 9.13 0 0 0 9.149-9.148V92.418A2.41 2.41 0 0 0 109.582 90z"/><path fill="#f7d786" d="M26.25 56h75.5c1.242 0 2.25 1.082 2.25 2.418v55.164c0 1.336-1.008 2.418-2.25 2.418h-75.5c-1.242 0-2.25-1.082-2.25-2.418V58.418C24 57.082 25.008 56 26.25 56"/><path fill="#b5835a" d="m16 92 4.48 3.36a19.9 19.9 0 0 0 7.825 3.546l29.473 6.203a6.55 6.55 0 0 1 5.07 5.121L64 116H22.16a6.16 6.16 0 0 1-6.16-6.16zM112 92l-4.48 3.36a19.9 19.9 0 0 1-7.825 3.546l-29.473 6.203a6.55 6.55 0 0 0-5.07 5.121L64 116h41.84a6.16 6.16 0 0 0 6.16-6.16z"/><path fill="#986a44" d="m16 60 21.641-46.887a4.32 4.32 0 0 1 6.688-1.508l15.343 12.79a6.76 6.76 0 0 0 8.657 0l15.344-12.79a4.32 4.32 0 0 1 6.688 1.508L112 60z"/><path fill="#b5835a" d="M12 56h104c2.21 0 4 1.79 4 4s-1.79 4-4 4H12c-2.21 0-4-1.79-4-4s1.79-4 4-4"/><g clip-path="url(#d)"><g clip-path="url(#e)"><path fill="url(#o)" d="M24.418 68h78.164A2.417 2.417 0 0 1 105 70.418v11.164A2.417 2.417 0 0 1 102.582 84H24.418A2.417 2.417 0 0 1 22 81.582V70.418A2.417 2.417 0 0 1 24.418 68"/></g></g><g clip-path="url(#h)"><g clip-path="url(#j)"><path fill="#5e5c64" d="m54.188 65 3.54 3.535-15.454 15.45-3.535-3.536z"/></g></g><g clip-path="url(#k)"><g clip-path="url(#l)"><path fill="#5e5c64" d="m62.727 67.043 1.492 1.492-15.449 15.45-1.496-1.493z"/></g></g><g clip-path="url(#m)"><g clip-path="url(#n)"><path fill="#5e5c64" d="m85.98 67.043 1.492 1.492-15.453 15.45-1.492-1.493z"/></g></g></svg>
